X: 1
T:Fraher's Jig
M:6/8
L:1/8
Q:80
C:3,4 by T. Tully
S:Jig
K:HP
e{g}e{A}e{gde}dB{G}A|
c{e}c{G}c{gde}dB{G}A|
e{g}e{A}e{gde}dBe|  !
{g}A{d}A{e}A{g}ABd|
e{g}e{A}e{gde}dB{G}A|
c{e}c{G}c{gde}dB{G}A|  !
{gcd}ceA{gde}dB{G}A|
{gef}ec{G}A{gAGAG}A2{d}A:|
ag{a}egae|  !
gae{gef}edB|
{g}def{gf}g2e|
{g}fdB{gBd}BAG|  !
ag{a}egae|
gae{gef}edB|
{g}((3efg)e{gde}dBe|1  !
{g}A{d}A{e}A{gAGAG}A2{gef}e:| |
|2 {g}A{d}A{e}A{g}ABd|]
e{g}e{A}e{gde}dB{G}A|  !
c{e}c{G}c{gde}dB{G}A|
{gcd}ceA{gde}dB{G}A|
{gef}ec{G}Aaed|  !
e{g}e{A}e{gde}dB{G}A|
c{e}c{G}c{gde}dB{G}A|
{gcd}ceA{gde}dB{G}A|  !
{gef}ec{G}A{gAGAG}A2{d}A:|
ag{a}eaA{d}A|
ae{A}e{gef}edB|  !
{g}def{a}gB{G}B|
{gde}dB{d}A{gde}dB{d}G|
ag{a}eaA{d}A|  !
ae{A}e{gef}edB|
{g}((3efg)e{gde}dBe|1
{g}A{d}A{e}A{gAGAG}A2{gef}e:| |  !
|2 {g}A{d}A{e}A{gAGAG}A3|]
